!!!SOCIAL_FUNCTION:	social gatherings
!!!PDT:	1939
!!!OTL: No_93_"My_Dear_Friend_is_Going_Away".krn
!!!LANG: Non-Tone
!!!LING_GROUP: Wakashan
!!!REG: Pacific Northwest
**kern
*staff1
=1-
*clefF4
*k[f#c#g#d#a#]
*M2/4
4F#\
12G#\L
12G#\
12G#\J
=2
4B\
12G#\L
12F#\
12F#\J
=3
4G#\
8.G#\L
16D#\Jk
=4
[2F#\
=5
4F#\]
4r
=6
4F#\
8.G#\L
16B\Jk
=7
8B\L
16G#\L
16F#\JJ
8F#\
16r
16G#\
=8
4G#\
8.F#\L
16F#\Jk
=9
8F#\
8r
8.G#\L
16G#\Jk
=10
4B\
16G#\LK
[8.F#\J
=11
2F#\_
=12||
*M3/4
2F#\]
4r
=13||
*M2/4
4F#\
8.G#\L
16B\Jk
=14
4B\
16G#\LL
16F#\JJ
16r
16F#\
=15
4G#\
16G#\LL
16F#\JJ
16r
16F#\
=16
[2F#\
=17
8.F#\L]
16F#\Jk
8F#\
8r
=18
4F#\
8.G#\L
16B\Jk
=19
8B\L
16G#\L
16F#\JJ
8F#\
16r
16B\
=20
4G#\
8F#\
16r
16F#\
=21
8F#\
8r
8.G#\L
16G#\Jk
=22
4G#\
16G#\LK
8F#\
16F#\Jk
=23
2F#\
==
*-
